X:1
T:Ane Scottis Dance
B:Rowallan manuscript, 1612-18
S:pete stewart  tradtunes 2005-6-24
M:4/4
L:1/8
K:D
dB \
| A2Bc d2f2 | edcBc2 Bc | dcde fefg | agfe E2ed |
| dBcd efgf | edcB c2A4 | f2efd2B2 | A2d4 dB |
| BAGA Bcde | f2ed cded | dcBc defg | afgf edcB |
| cAbc dBcd | ecdB cdBc | d3 fd2B2 | A2d4 ||
